X: 18377
T: Hundred Pipers
R: jig
M: 6/8
K: Gmajor
|:B2D DB,D|E2G G2e|d2B BAG|B2A AGA|
B2D DB,D|E2G G2e|d2B ABA|G3 G2A:|
B2d dBd|e2g gfe|d2B BAG|B2A AGA|
B2d dBd|e2g gfe|d2B ABA|G3 G2A|
B2d dBd|e2g gfe|d2B BAG|B2A AGA|
B2D DB,D|E2G G2e|d2B ABA|G3 G2A||

